Origami/64x64/apps/staruml.svg

<svg width="64" height="64" version="1" xmlns="http://www.w3.org/2000/svg">
 <path d="m32.000031 4.9994421c-2.614397 0.037368-4.480469 1.6117939-5.355474 4.2187549l0.03516-0.117189-4.10938 11.898451h-13.851577c-0.030202-4.84e-4 -0.059642-4.84e-4 -0.089844 0-1.654255 0.05362-3.1443889 1.02522-4.1953168 2.304691-2.2728444 2.608995-1.7924197 7.31597 1.0937511 9.261728l10.890636 7.95704-4.226567 13.132826c-0.0047 0.0146-0.0073 0.02836-0.01172 0.04296-0.645811 2.12152-0.03851 4.305614 1.585939 5.800788 0.01174 0.011 0.02314 0.02438 0.03516 0.03516 1.952084 1.735374 4.697848 1.95593 6.90235 0.519532 0.04194-0.02714 0.08068-0.05664 0.1211-0.08594l11.175786-7.968752 11.175793 7.968758c0.04042 0.02932 0.07916 0.05882 0.1211 0.08594 2.204503 1.436398 4.950264 1.215842 6.90235-0.519532 0.012-0.0108 0.02334-0.02412 0.03516-0.03516 1.624451-1.495174 2.231748-3.679268 1.585937-5.800788-0.0044-0.0146-7e-3 -0.02842-0.0118-0.04296l-4.22657-13.132826 10.890635-7.95704c2.886171-1.945758 3.366596-6.652733 1.093752-9.261728-1.050928-1.279471-2.541061-2.25107-4.195317-2.304691-0.0302-4.84e-4 -0.05964-4.84e-4 -0.08984 0h-13.851576l-4.109381-11.89845 0.03516 0.117188c-0.874939-2.606967-2.741011-4.1813929-5.355407-4.2187609z" style="opacity:.2"/>
 <path d="m32.000067 3.9999366c2.614396 0.037368 4.478894 1.6122061 5.353899 4.2191666l-0.03237-0.1175783 4.107803 11.898428h13.85271c0.0302-4.84e-4 0.0588-4.84e-4 0.089 0 1.654256 0.05362 3.145883 1.024767 4.196811 2.304239l-27.567855 9.695918z" style="fill:#f74545"/>
 <path d="m50.197928 58.534652c0.012-0.0108 0.02594-0.02178 0.03776-0.03282 1.624453-1.495174 2.231752-3.68086 1.585941-5.80238-0.0044-0.0146-0.0088-0.02922-0.0136-0.04376l-4.226422-13.13055 10.891209-7.959814c2.886171-1.945759 3.3679-6.652155 1.095056-9.26115l-27.567867 9.695918s18.235615 26.501726 18.197861 26.534542z" style="fill:#707070"/>
 <path d="m13.764436 58.501836c0.01174 0.011 0.02574 0.02204 0.03776 0.03282 1.952084 1.735374 4.694879 1.955932 6.899381 0.519534 0.04194-0.02714 0.08364-0.05546 0.12406-0.08476l11.174434-7.969444 11.174413 7.96943c0.04042 0.02932 0.08212 0.05764 0.12406 0.08476 2.204505 1.436398 4.947298 1.21584 6.899384-0.519534 0.012-0.0108 0.02594-0.02178 0.03776-0.03282l-18.235621-26.501712z" style="fill:#7b4188"/>
 <path d="m31.999995 3.9999366c-2.614397 0.037368-4.478895 1.6122061-5.3539 4.2191666l0.03237-0.1175783-4.107802 11.898428h-13.852711c-0.030202-4.84e-4 -0.0588-4.84e-4 -0.089002 0-1.654255 0.05362-3.1458829 1.024767-4.1968108 2.304239l27.567855 9.695918z" style="fill:#ff9d45"/>
 <path d="m13.802134 58.534652c-0.01202-0.0108-0.02595-0.02178-0.03776-0.03282-1.624454-1.495174-2.231752-3.68086-1.585942-5.80238 0.0044-0.0146 0.0088-0.02922 0.01354-0.04376l4.22642-13.130536-10.891209-7.959814c-2.8861708-1.945759-3.3678993-6.652155-1.0950549-9.26115l27.567866 9.695918s-18.235616 26.501726-18.197861 26.534542z" style="fill:#ffd945"/>
 <path d="m32 4c-2.614397 0.037368-4.480464 1.611789-5.355469 4.21875l0.035157-0.1171875-4.109376 11.898438h-13.851562c-0.030202-4.84e-4 -0.0596418-4.84e-4 -0.0898438 0-1.654255 0.05362-3.1443846 1.025216-4.1953124 2.304688-1.0626676 1.219834-1.5157131 2.896673-1.4101563 4.537109 0.1004444-1.3031 0.5634059-2.565126 1.4101563-3.537109 1.0509278-1.279472 2.5410574-2.251068 4.1953124-2.304688 0.030202-4.84e-4 0.0596418-4.84e-4 0.0898438 0h13.851562l4.109376-11.898438-0.035157 0.1171875c0.875005-2.606961 2.741072-4.181382 5.355469-4.21875 2.614396 0.037368 4.48053 1.611783 5.355469 4.21875l-0.035157-0.1171875 4.109376 11.898438h13.851562c0.0302-4.84e-4 0.059644-4.84e-4 0.089844 0 1.654256 0.053621 3.144384 1.025216 4.195312 2.304688 0.84675 0.971983 1.309712 2.234009 1.410156 3.537109 0.105557-1.640436-0.347488-3.317275-1.410156-4.537109-1.050928-1.279472-2.541056-2.251067-4.195312-2.304688-0.0302-4.84e-4 -0.059644-4.84e-4 -0.089844 0h-13.851562l-4.109376-11.898438 0.035157 0.1171875c-0.874939-2.606967-2.741073-4.181382-5.355469-4.21875zm-15.841797 36.333984l-3.966797 12.322266c-0.0047 0.0146-0.007299 0.028369-0.011718 0.042969-0.225064 0.739345-0.290036 1.484293-0.220704 2.207031 0.033942-0.401754 0.098215-0.804652 0.220704-1.207031 0.004419-0.0146 0.007018-0.028369 0.011718-0.042969l4.226563-13.132812-0.259766-0.189454zm31.683594 0l-0.259766 0.189454 4.226563 13.132812c0.0048 0.01454 0.007319 0.028369 0.011718 0.042969 0.122489 0.402379 0.186762 0.805277 0.220704 1.207031 0.069331-0.722738 0.00436-1.467686-0.220704-2.207031-0.004399-0.0146-0.006918-0.028429-0.011718-0.042969l-3.966797-12.322266z" style="fill:#ffffff;opacity:.2"/>
</svg>

<svg xmlns="http://www.w3.org/2000/svg" width="64" height="64" version="1">
 <path style="opacity:0.2" d="M 32.000031,4.9994421 C 29.385634,5.0368101 27.519562,6.611236 26.644557,9.218197 l 0.03516,-0.117189 -4.10938,11.898451 -13.8515768,0 c -0.030202,-4.84e-4 -0.059642,-4.84e-4 -0.089844,0 -1.654255,0.05362 -3.1443889,1.02522 -4.1953168,2.304691 -2.2728444,2.608995 -1.7924197,7.31597 1.0937511,9.261728 l 10.8906365,7.95704 -4.226567,13.132826 c -0.0047,0.0146 -0.0073,0.02836 -0.01172,0.04296 -0.645811,2.12152 -0.03851,4.305614 1.585939,5.800788 0.01174,0.011 0.02314,0.02438 0.03516,0.03516 1.952084,1.735374 4.697848,1.95593 6.90235,0.519532 0.04194,-0.02714 0.08068,-0.05664 0.1211,-0.08594 l 11.175786,-7.968752 11.175793,7.968758 c 0.04042,0.02932 0.07916,0.05882 0.1211,0.08594 2.204503,1.436398 4.950264,1.215842 6.90235,-0.519532 0.012,-0.0108 0.02334,-0.02412 0.03516,-0.03516 1.624451,-1.495174 2.231748,-3.679268 1.585937,-5.800788 -0.0044,-0.0146 -0.007,-0.02842 -0.0118,-0.04296 l -4.22657,-13.132826 10.890635,-7.95704 c 2.886171,-1.945758 3.366596,-6.652733 1.093752,-9.261728 -1.050928,-1.279471 -2.541061,-2.25107 -4.195317,-2.304691 -0.0302,-4.84e-4 -0.05964,-4.84e-4 -0.08984,0 l -13.851576,0 -4.109381,-11.89845 0.03516,0.117188 C 36.480499,6.611236 34.614427,5.0368101 32.000031,4.9994421 Z"/>
 <path style="fill:#f74545" d="m 32.000067,3.9999366 c 2.614396,0.037368 4.478894,1.6122061 5.353899,4.2191666 l -0.03237,-0.1175783 4.107803,11.8984281 13.85271,0 c 0.0302,-4.84e-4 0.0588,-4.84e-4 0.089,0 1.654256,0.05362 3.145883,1.024767 4.196811,2.304239 L 32.000065,32.00011 Z"/>
 <path style="fill:#707070" d="m 50.197928,58.534652 c 0.012,-0.0108 0.02594,-0.02178 0.03776,-0.03282 1.624453,-1.495174 2.231752,-3.68086 1.585941,-5.80238 -0.0044,-0.0146 -0.0088,-0.02922 -0.0136,-0.04376 l -4.226422,-13.13055 10.891209,-7.959814 c 2.886171,-1.945759 3.3679,-6.652155 1.095056,-9.26115 l -27.567867,9.695918 c 0,0 18.235615,26.501726 18.197861,26.534542 z"/>
 <path style="fill:#7b4188" d="m 13.764436,58.501836 c 0.01174,0.011 0.02574,0.02204 0.03776,0.03282 1.952084,1.735374 4.694879,1.955932 6.899381,0.519534 0.04194,-0.02714 0.08364,-0.05546 0.12406,-0.08476 l 11.174434,-7.969444 11.174413,7.96943 c 0.04042,0.02932 0.08212,0.05764 0.12406,0.08476 2.204505,1.436398 4.947298,1.21584 6.899384,-0.519534 0.012,-0.0108 0.02594,-0.02178 0.03776,-0.03282 L 32.000067,32.00011 Z"/>
 <path style="fill:#ff9d45" d="m 31.999995,3.9999366 c -2.614397,0.037368 -4.478895,1.6122061 -5.3539,4.2191666 l 0.03237,-0.1175783 -4.107802,11.8984281 -13.8527106,0 c -0.030202,-4.84e-4 -0.0588,-4.84e-4 -0.089002,0 -1.654255,0.05362 -3.1458829,1.024767 -4.1968108,2.304239 L 31.999995,32.00011 Z"/>
 <path style="fill:#ffd945" d="m 13.802134,58.534652 c -0.01202,-0.0108 -0.02595,-0.02178 -0.03776,-0.03282 -1.624454,-1.495174 -2.231752,-3.68086 -1.585942,-5.80238 0.0044,-0.0146 0.0088,-0.02922 0.01354,-0.04376 L 16.418392,39.525156 5.5271834,31.565342 C 2.6410126,29.619583 2.1592841,24.913187 4.4321285,22.304192 L 31.999995,32.00011 c 0,0 -18.235616,26.501726 -18.197861,26.534542 z"/>
 <path style="opacity:0.2;fill:#ffffff" d="M 32 4 C 29.385603 4.037368 27.519536 5.611789 26.644531 8.21875 L 26.679688 8.1015625 L 22.570312 20 L 8.71875 20 C 8.688548 19.999516 8.6591082 19.999516 8.6289062 20 C 6.9746512 20.05362 5.4845216 21.025216 4.4335938 22.304688 C 3.3709262 23.524522 2.9178807 25.201361 3.0234375 26.841797 C 3.1238819 25.538697 3.5868434 24.276671 4.4335938 23.304688 C 5.4845216 22.025216 6.9746512 21.05362 8.6289062 21 C 8.6591082 20.999516 8.688548 20.999516 8.71875 21 L 22.570312 21 L 26.679688 9.1015625 L 26.644531 9.21875 C 27.519536 6.611789 29.385603 5.037368 32 5 C 34.614396 5.037368 36.48053 6.611783 37.355469 9.21875 L 37.320312 9.1015625 L 41.429688 21 L 55.28125 21 C 55.31145 20.999516 55.340894 20.999516 55.371094 21 C 57.02535 21.053621 58.515478 22.025216 59.566406 23.304688 C 60.413156 24.276671 60.876118 25.538697 60.976562 26.841797 C 61.082119 25.201361 60.629074 23.524522 59.566406 22.304688 C 58.515478 21.025216 57.02535 20.053621 55.371094 20 C 55.340894 19.999516 55.31145 19.999516 55.28125 20 L 41.429688 20 L 37.320312 8.1015625 L 37.355469 8.21875 C 36.48053 5.611783 34.614396 4.037368 32 4 z M 16.158203 40.333984 L 12.191406 52.65625 C 12.186706 52.67085 12.184107 52.684619 12.179688 52.699219 C 11.954624 53.438564 11.889652 54.183512 11.958984 54.90625 C 11.992926 54.504496 12.057199 54.101598 12.179688 53.699219 C 12.184107 53.684619 12.186706 53.67085 12.191406 53.65625 L 16.417969 40.523438 L 16.158203 40.333984 z M 47.841797 40.333984 L 47.582031 40.523438 L 51.808594 53.65625 C 51.813394 53.67079 51.815913 53.684619 51.820312 53.699219 C 51.942801 54.101598 52.007074 54.504496 52.041016 54.90625 C 52.110347 54.183512 52.045376 53.438564 51.820312 52.699219 C 51.815913 52.684619 51.813394 52.67079 51.808594 52.65625 L 47.841797 40.333984 z"/>
</svg>
